src/assets/img/about_factory/2019.svg

<svg width="337" height="111" viewBox="0 0 337 111" fill="none" xmlns="http://www.w3.org/2000/svg">
<path d="M76.9329 109H2.5188V92.8867L36.7961 56.8516C45.2434 47.2324 49.467 39.5908 49.467 33.9268C49.467 29.3369 48.4661 25.8457 46.4641 23.4531C44.4622 21.0605 41.5569 19.8643 37.7483 19.8643C33.9885 19.8643 30.9368 21.4756 28.593 24.6982C26.2493 27.8721 25.0774 31.8516 25.0774 36.6367H0.321533C0.321533 30.0938 1.95728 24.0635 5.22876 18.5459C8.50024 12.9795 13.0413 8.63379 18.8518 5.50879C24.6624 2.38379 31.1565 0.821289 38.3342 0.821289C49.8577 0.821289 58.72 3.48242 64.9211 8.80469C71.1711 14.127 74.2961 21.7686 74.2961 31.7295C74.2961 35.9287 73.5149 40.0303 71.9524 44.0342C70.3899 47.9893 67.9485 52.1641 64.6282 56.5586C61.3567 60.9043 56.0588 66.7393 48.7346 74.0635L34.9651 89.957H76.9329V109ZM163.432 65.4209C163.432 79.8252 160.185 90.9336 153.691 98.7461C147.245 106.559 138.139 110.465 126.371 110.465C114.506 110.465 105.326 106.534 98.8323 98.6729C92.3381 90.8115 89.0911 79.7275 89.0911 65.4209V45.9385C89.0911 31.5342 92.3137 20.4258 98.759 12.6133C105.253 4.80078 114.408 0.894531 126.225 0.894531C138.041 0.894531 147.197 4.8252 153.691 12.6865C160.185 20.5479 163.432 31.6562 163.432 46.0117V65.4209ZM138.749 42.7891C138.749 35.123 137.748 29.4102 135.746 25.6504C133.744 21.8418 130.571 19.9375 126.225 19.9375C121.977 19.9375 118.876 21.6953 116.923 25.2109C115.019 28.7266 113.993 34.0488 113.847 41.1777V68.4238C113.847 76.3828 114.848 82.2178 116.85 85.9287C118.852 89.5908 122.026 91.4219 126.371 91.4219C130.571 91.4219 133.671 89.6396 135.673 86.0752C137.675 82.4619 138.7 76.8223 138.749 69.1562V42.7891ZM230.961 109H206.205V30.1914L181.889 37.2959V18.5459L228.691 2.35938H230.961V109ZM311.747 67.7646C306.425 72.5498 300.468 74.9424 293.876 74.9424C284.208 74.9424 276.542 71.6709 270.878 65.1279C265.214 58.585 262.382 49.8447 262.382 38.9072C262.382 32.0713 263.969 25.7236 267.143 19.8643C270.317 14.0049 274.76 9.36621 280.473 5.94824C286.235 2.53027 292.582 0.821289 299.516 0.821289C306.547 0.821289 312.895 2.60352 318.559 6.16797C324.272 9.68359 328.715 14.6885 331.889 21.1826C335.063 27.6279 336.698 35.0742 336.796 43.5215V52.9697C336.796 64.7373 334.477 74.9424 329.838 83.585C325.248 92.2275 318.681 98.8682 310.136 103.507C301.591 108.146 291.63 110.465 280.253 110.465H278.715V90.6895L283.403 90.6162C300.395 89.7861 309.843 82.1689 311.747 67.7646ZM300.541 57.1445C305.912 57.1445 309.77 54.8252 312.114 50.1865V39.9326C312.114 33.0967 310.966 28.043 308.671 24.7715C306.376 21.5 303.276 19.8643 299.369 19.8643C295.903 19.8643 292.997 21.7197 290.654 25.4307C288.31 29.1416 287.138 33.6338 287.138 38.9072C287.138 44.4736 288.334 48.917 290.727 52.2373C293.119 55.5088 296.391 57.1445 300.541 57.1445Z" fill="#626262" fill-opacity="0.26"/>
</svg>

<svg width="337" height="111" fill="none" xmlns="http://www.w3.org/2000/svg"><path d="M76.933 109H2.519V92.887l34.277-36.035c8.447-9.62 12.671-17.261 12.671-22.925 0-4.59-1-8.081-3.003-10.474-2.002-2.392-4.907-3.589-8.716-3.589-3.76 0-6.811 1.612-9.155 4.834-2.344 3.174-3.516 7.154-3.516 11.939H.322c0-6.543 1.635-12.573 4.907-18.091C8.5 12.98 13.04 8.634 18.852 5.509 24.662 2.384 31.157.82 38.334.82c11.524 0 20.386 2.661 26.587 7.984 6.25 5.322 9.375 12.964 9.375 22.925 0 4.199-.781 8.3-2.344 12.304-1.562 3.955-4.004 8.13-7.324 12.525-3.271 4.345-8.57 10.18-15.893 17.505l-13.77 15.893h41.968V109zm86.499-43.58c0 14.405-3.247 25.514-9.741 33.326-6.446 7.813-15.552 11.719-27.32 11.719-11.865 0-21.045-3.931-27.539-11.792-6.494-7.862-9.74-18.945-9.74-33.252V45.938c0-14.404 3.222-25.512 9.667-33.325C105.253 4.801 114.408.895 126.225.895c11.816 0 20.972 3.93 27.466 11.792 6.494 7.86 9.741 18.97 9.741 33.325V65.42zm-24.683-22.63c0-7.667-1.001-13.38-3.003-17.14-2.002-3.808-5.175-5.712-9.521-5.712-4.248 0-7.349 1.757-9.302 5.273-1.904 3.516-2.93 8.838-3.076 15.967v27.246c0 7.959 1.001 13.794 3.003 17.505 2.002 3.662 5.176 5.493 9.521 5.493 4.2 0 7.3-1.782 9.302-5.347 2.002-3.613 3.027-9.253 3.076-16.919V42.79zM230.961 109h-24.756V30.191l-24.316 7.105v-18.75l46.802-16.187h2.27V109zm80.786-41.235c-5.322 4.785-11.279 7.177-17.871 7.177-9.668 0-17.334-3.271-22.998-9.814-5.664-6.543-8.496-15.283-8.496-26.22 0-6.837 1.587-13.184 4.761-19.044 3.174-5.86 7.617-10.498 13.33-13.916C286.235 2.53 292.582.821 299.516.821c7.031 0 13.379 1.783 19.043 5.347 5.713 3.516 10.156 8.52 13.33 15.015 3.174 6.445 4.809 13.891 4.907 22.339v9.448c0 11.767-2.319 21.972-6.958 30.615-4.59 8.643-11.157 15.283-19.702 19.922-8.545 4.639-18.506 6.958-29.883 6.958h-1.538V90.689l4.688-.073c16.992-.83 26.44-8.447 28.344-22.851zm-11.206-10.62c5.371 0 9.229-2.32 11.573-6.959V39.934c0-6.836-1.148-11.89-3.443-15.162-2.295-3.271-5.395-4.907-9.302-4.907-3.466 0-6.372 1.856-8.715 5.567-2.344 3.71-3.516 8.203-3.516 13.476 0 5.567 1.196 10.01 3.589 13.33 2.392 3.272 5.664 4.907 9.814 4.907z" fill="#626262" fill-opacity=".26"/></svg>
